modules/boxicons-solid/icons/dashboard.svg

<svg xmlns="http://www.w3.org/2000/svg" width="24" height="24" viewBox="0 0 24 24"><path d="M19.08 4.929a9.936 9.936 0 0 0-7.07-2.938 9.941 9.941 0 0 0-7.072 2.938c-3.899 3.898-3.899 10.243 0 14.142 1.895 1.895 4.406 2.938 7.072 2.938s5.177-1.043 7.07-2.937c3.899-3.898 3.899-10.243 0-14.143zm.857 8.062H18v-2h1.934c.084.664.085 1.336.003 2zm-7.927 7.018a7.95 7.95 0 0 1-6.925-4.018h13.849a7.95 7.95 0 0 1-6.924 4.018zm-7.926-9.018H6v2H4.081a8.063 8.063 0 0 1 .003-2zm3.022-5.306l1.357 1.357L7.05 8.456 5.693 7.1c.203-.261.418-.516.658-.756.24-.24.494-.454.755-.659zm10.56.658c.386.387.724.803 1.015 1.242l-4.717 4.054c.021.117.036.236.036.359a1.993 1.993 0 0 1-1.992 1.993 1.992 1.992 0 0 1 0-3.983c.229 0 .444.047.648.117l4.714-4.051c.099.089.201.174.296.269zM13 5.991h-2V4.063a8.056 8.056 0 0 1 1.01-.071c.334 0 .663.027.99.068v1.931z"/></svg>

<svg xmlns="http://www.w3.org/2000/svg" width="24" height="24" viewBox="0 0 24 24" viewBox="0 0 24 24"><path d="M19.08,4.929c-1.895-1.895-4.405-2.938-7.07-2.938c-2.666,0-5.178,1.044-7.072,2.938c-3.899,3.898-3.899,10.243,0,14.142	c1.895,1.895,4.406,2.938,7.072,2.938s5.177-1.043,7.07-2.937C22.979,15.174,22.979,8.829,19.08,4.929z M19.937,12.991H18v-2h1.934	C20.018,11.655,20.019,12.327,19.937,12.991z M12.01,20.009c-2.132,0-4.142-0.835-5.658-2.352c-0.508-0.508-0.924-1.071-1.267-1.666	h13.849c-0.343,0.595-0.76,1.159-1.268,1.667C16.15,19.174,14.142,20.009,12.01,20.009z M4.084,10.991H6v2H4.081	C3.999,12.327,4,11.655,4.084,10.991z M7.106,5.685l1.357,1.357L7.05,8.456L5.693,7.1c0.203-0.261,0.418-0.516,0.658-0.756	C6.591,6.104,6.845,5.89,7.106,5.685z M17.666,6.343c0.386,0.387,0.724,0.803,1.015,1.242l-4.717,4.054	C13.985,11.756,14,11.875,14,11.998c0,1.101-0.893,1.993-1.992,1.993c-1.099,0-1.991-0.893-1.991-1.993	c0-1.098,0.893-1.99,1.991-1.99c0.229,0,0.444,0.047,0.648,0.117l4.714-4.051C17.469,6.163,17.571,6.248,17.666,6.343z M13,5.991h-2	V4.063c0.333-0.042,0.669-0.071,1.01-0.071c0.334,0,0.663,0.027,0.99,0.068V5.991z"/></svg>
